X:1
T:De Looser. CF
T:Naturjodel rund um den Saentis (www.roothuus-gonten.ch)
%%partsbox
%P:
Q:1/4=50
R:Naturjodel
M:8/8
L:1/8
K:C  %  (%%MIDI gchordo) 
[P:A] C D | E>D C E G/>E/ E/G/ c/>B/ c/d/ | [M:6/8] "C"e2 !breath! C2G e/f//e// | "G7"d2B, D G/f/ e/d/ | [M:10/8] "C"c>B c d e2 !breath!C2E/D/ C/D/  | 
%w: Jo lo lo lü do lo lo-la la lo dü-lu dü li  lu jo ja u du-lu di jo lo lo-u dü-li  di-u di di u ja ho-lo-lo-lo 
"C"E>D C E G/>E/ E/G/ c/>B/ c/d/ | [M:6/8] "C"e2 !breath! C2G (3e/f/e/ | "G7"d2B, D G/"rit."f/ e/d/ | "C"c4 z z |]
%w:do di ja lo lo-la la lo dü-lu dü li  lu ja jo u-dü-ri   i ja lo lo-u lu-i  ü
[P:B] e/d/c/d/ | e2 {/C} C E G/e/ d/e/ | "G7"f2 B, D !breath!G>B/d// | "G7"f2B, D G/f/ e/d/ | "C"e2 C E/A/ !breath!G>c/d// | 
%w: ü-i-di-ri  i (di)da lo lo-u-dü-ri u jol lo lo u-u  u ja lo lo-u-lu-li du jo lo-o lo hu-li
"C"e2 {/C} C E G/e/ d/g/ | "G7"f2 B, D/A/ !breath!G>B/d// | "G7"f2B, D G/f/"rit." e/d/ | "C"c4 z z |] 
%w: u (di)da lo lo-u lu-i du ja o-lo lo hu-li u da lo jo-u-lu-di  dü
[P:C] {c/d/} (3edc | A2C E ((5G/e/d/c/e/)  | [M:8/8] "G7"g>f d B/A/ !breath!G2 G/f/ d/B/ | [M:6/8] "G7"A2 {B,}B,  D G/f/ e/d/ | 
%w: (u)u-di-dü  ü jo lo  jo-u-du-di-u  ju-u di u-li dü jo-u du-li dü (di)da lo lo-u-lu-li
[M:8/8] "C"g>e c B/A/ !breath!G2 G/e/ d/c/  | [M:6/8] "C"A2C E G/e/ d/e/ | "G7"f2 {B,}B, D G/f/ d/B/ | !breath!"G7"A2 {B,}B, D G/f/ "rit."e/d/ | "C"c4z z |] 
%w: u li dü u-li dü jo-u-di-ri  dü da o lo-u-lu-lu-u (di)la  lo lo-u-lu-lü  dü (di)da lo lo-u-lu-li  ü 
[P:D]
K:F
[M:8/8] F>E D C/A/ C A F (3(d/c/d/) | [M:6/8] "C7"e>d c B/C/ !breath!E2 | E>D D C/B/ C(3c/=B/c/ | "F"d>c A c !breath!F2 | 
%w: jo li do lia-du jo du ja u-dü-ri  u li dü ü-a lo  ho li-i do li a dü-rü-dü ü dü dü du ja 
F>E D C/A/ F (3(d/c/d/) | [M:6/8] "C7"e>d c B/C/ !breath!E2 | [M:8/8]E>D D C/B/ C B E/d/ c/E/ | "F"F>c A/"rit."F/ A/c/ f4 |] 
%w: jo li do lia-du jo u-dü-ri u li dü ü-a lo ho li do ja-u ja u jo-u-dü-o jo ü dü-a-du-lü u
W:
%W:Parts: ABCD
W:trad. Toggenburg
W:Nach Georg Kuratli JK Männertreu Nesslau
W:Schallackplatte Ultraphon A 25035 (1930)
W: 
W:Ein sehr typischer, einzigartiger Toggenburger Naturjodel. 
W: Man findet kaum Ähnlichkeiten mit anderen "Jödel".
W: Er wird auch in unterschiedlichen Versionen gesungen (nur A-C-D)
W: 
W: Jakob Waespe schreibt : überliefert von den "Loosern" Germen Nesslau
W: 
W:https://www.roothuus-gonten.ch/mediendateien/jodel/pdf/De Scherrer.pdf
W: *AUDIO*:  www.roothuus-gonten.ch/cms/index.php/de/naturjodel-rund-um-den-saentis
% © 2015 ROOTHUUS GONTEN. #1253.50
% Feb. 6 2019

